!!!COM: Mozart, Wolfgang Amadeus
!!!OTL: Musikalische Würfelspiele, Kontre-Tänze
!!!SCA: K<sup>6</sup> Anh. C30.01 (K<sup>3</sup> Anh. 294d)
**kern	**kern
*staff2	*staff2
*clefF4	*clefG2
*M2/4	*M2/4
*MM110	*MM110
*>[A,A1,A,A2,B]	*>[A,A1,A,A2,B]
*>norep[A,A2,B]	*>norep[A,A2,B]
*>A	*>A
=36	=36
4C	8cc
.	16c
.	16e
4C	8g
.	16cc
.	16ee
=152	=152
4C	8gg
.	16ccc
.	16gg
4r	8ee
.	8cc
=164	=164
16GG	8b
16AA	.
16BB	8b
16C	.
16D	8g
16E	.
16F	8g
16D	.
=15	=15
4C	16cc
.	16ee
.	16gg
.	16ee
4C	8cc
.	8cc
=117	=117
16D	8aa
16A	.
16F#	4ff#
16A	.
16D	.
16A	.
16F#	8dd
16A	.
=52	=52
16BB	8gg
16GG	.
16BB	8bb
16D	.
16G	8gg
16D	.
16BB	8dd
16GG	.
=78	=78
4C	8ee
.	16ee
.	16gg
4D	8ff#
.	16ff#
.	16aa

=130	=130
*>A1	*>A1
4GG	4g 4b 4gg
16G	4r
16F	.
16E	.
16D	.
=130:|!	=130:|!
*>A2	*>A2
4GG	4g 4b 4gg
16GG	4r
16AA	.
16BB	.
16C#	.
=116||	=116||
*>B	*>B
8D	8dd
16C#	4ff#
16D	.
16Cn	.
16D	.
16C	8aa
16D	.
=157	=157
4G	16gg
.	16aa
.	16bb
.	16ccc
4GG	4ddd
=62	=62
16C	8ee
16GG	.
16E	8ee
16C	.
16c	8gg
16G	.
16E	8ee
16C	.
=51	=51
4GG	16b
.	16gg
.	16dd
.	16b
16G	4g
16F	.
16E	.
16D	.
=31	=31
8C	8cc
8C	16cc
.	16ee
8C	16gg
.	16ee
8C	16gg
.	16ee
=80	=80
4C	8cc
.	8ee
4r	8ee
.	8ee
=154	=154
4G	8ff
.	8dd
4GG	8cc
.	8b
=146	=146
4C	4cc
4CC	4c
==	==
*-	*-
